X: 271
T:Bonny Kate Of Aberdeen. JaW.270
M:C|
Q:160
S:James Winder Ms, Lancashire, 1835-41
R:Strathspey
O:England
A:Wyresdale,Lancashire
H:1/8
Z:vmp.Chris Partington, Aug 2004
K:D
A<FE<D A<FE<D|B2Bc d2cB|A<FE<D A<FE<D|E>FG>A G2FE|!
A<FE<D A<FE<D|fgaf e2dc|dfdA BdBG|AFED D4:|!
|:e<cB<A e<cB<A|d2cB c2BA|B2Bc c2ef|fdaf e2fg|!
afed ecBA|BcdF E2DC|DfdA BdBG|AFED D4:|]
